src/assets/filled/QuoteDownCircle.svg

<?xml version="1.0" encoding="UTF-8"?>
<svg width="24" height="24" viewBox="0 0 24 24" xmlns="http://www.w3.org/2000/svg">
 <path d="m12 2c-5.52 0-10 4.48-10 10s4.48 10 10 10 10-4.48 10-10-4.48-10-10-10zm-0.39 12.84c0 1.09-0.85 1.94-1.94 1.94h-1.48c-1.07 0-1.94-0.87-1.94-1.94v-2.67c0-3.08 0.67-3.77 2.46-4.83 0.12-0.07 0.25-0.1 0.38-0.1 0.26 0 0.51 0.13 0.65 0.37 0.21 0.36 0.09 0.82-0.26 1.03-1.21 0.7-1.63 0.96-1.71 2.77h1.91c1.09 0 1.94 0.85 1.94 1.94v1.49h-0.01zm6.14 0c0 1.09-0.85 1.94-1.94 1.94h-1.49c-1.07 0-1.94-0.87-1.94-1.94v-2.67c0-3.08 0.67-3.77 2.46-4.83 0.12-0.07 0.25-0.1 0.38-0.1 0.26 0 0.51 0.13 0.65 0.37 0.21 0.36 0.09 0.82-0.26 1.03-1.21 0.72-1.63 0.98-1.71 2.79h1.91c1.09 0 1.94 0.85 1.94 1.94v1.47z"/>
</svg>

<svg width="24" height="24" viewBox="0 0 24 24"  xmlns="http://www.w3.org/2000/svg">
<path d="M12 2C6.48 2 2 6.48 2 12C2 17.52 6.48 22 12 22C17.52 22 22 17.52 22 12C22 6.48 17.52 2 12 2ZM11.61 14.84C11.61 15.93 10.76 16.78 9.67 16.78H8.19C7.12 16.78 6.25 15.91 6.25 14.84V12.17C6.25 9.09 6.92 8.4 8.71 7.34C8.83 7.27 8.96 7.24 9.09 7.24C9.35 7.24 9.6 7.37 9.74 7.61C9.95 7.97 9.83 8.43 9.48 8.64C8.27 9.34 7.85 9.6 7.77 11.41H9.68C10.77 11.41 11.62 12.26 11.62 13.35V14.84H11.61ZM17.75 14.84C17.75 15.93 16.9 16.78 15.81 16.78H14.32C13.25 16.78 12.38 15.91 12.38 14.84V12.17C12.38 9.09 13.05 8.4 14.84 7.34C14.96 7.27 15.09 7.24 15.22 7.24C15.48 7.24 15.73 7.37 15.87 7.61C16.08 7.97 15.96 8.43 15.61 8.64C14.4 9.36 13.98 9.62 13.9 11.43H15.81C16.9 11.43 17.75 12.28 17.75 13.37V14.84Z" />
</svg>
